icons/arrow-box-in-down.svg

<svg xmlns="http://www.w3.org/2000/svg" width="24" height="24" viewBox="0 0 24 24">
  <path d="M7.85714286,2 L7.97376398,2.00672773 C8.47110267,2.06449284 8.85714286,2.48716416 8.85714286,3 C8.85714286,3.55228475 8.40942761,4 7.85714286,4 L7.85714286,4 L5,4 L4.88337887,4.00672773 C4.38604019,4.06449284 4,4.48716416 4,5 L4,5 L4,19 L4.00672773,19.1166211 C4.06449284,19.6139598 4.48716416,20 5,20 L5,20 L19,20 L19.1166211,19.9932723 C19.6139598,19.9355072 20,19.5128358 20,19 L20,19 L20,5 L19.9932723,4.88337887 C19.9355072,4.38604019 19.5128358,4 19,4 L19,4 L16.1428571,4 L16.026236,3.99327227 C15.5288973,3.93550716 15.1428571,3.51283584 15.1428571,3 C15.1428571,2.44771525 15.5905724,2 16.1428571,2 L16.1428571,2 L19,2 L19.1762728,2.00509269 C20.75108,2.09633912 22,3.40231912 22,5 L22,5 L22,19 L21.9949073,19.1762728 C21.9036609,20.75108 20.5976809,22 19,22 L19,22 L5,22 L4.82372721,21.9949073 C3.24891996,21.9036609 2,20.5976809 2,19 L2,19 L2,5 L2.00509269,4.82372721 C2.09633912,3.24891996 3.40231912,2 5,2 L5,2 L7.85714286,2 Z M12,2 C12.5128358,2 12.9355072,2.38604019 12.9932723,2.88337887 L13,3 L13,12.585 L15.5355339,10.0502525 C15.9260582,9.65972824 16.5592232,9.65972824 16.9497475,10.0502525 C17.3102314,10.4107365 17.337961,10.9779675 17.0329361,11.3702588 L16.9497475,11.4644661 L12.7071068,15.7071068 C12.6786405,15.7355731 12.6484659,15.7623312 12.6167501,15.787214 L12.7071068,15.7071068 C12.6717127,15.7425008 12.6343256,15.774687 12.5953066,15.8036654 C12.5711307,15.8215099 12.546275,15.8382813 12.5206602,15.8539326 C12.5086131,15.8613931 12.4963944,15.8685012 12.4840621,15.8753288 C12.4642939,15.8862061 12.4438914,15.8966234 12.4230991,15.9063462 C12.4060985,15.914321 12.3887956,15.9218036 12.371336,15.9287745 C12.3515792,15.9366843 12.3317977,15.9438775 12.3117364,15.9504533 C12.2968513,15.9552713 12.2814633,15.9599023 12.265993,15.9641549 C12.2444365,15.9701664 12.2227461,15.9753602 12.2007941,15.9798348 C12.1926434,15.981408 12.1845447,15.9829554 12.1764315,15.9844021 L12.1489612,15.9889807 C12.1281144,15.9920941 12.1070574,15.994564 12.085811,15.9963697 L12.0590314,15.9982669 L12.0590314,15.9982669 L12.0335352,15.9994483 C12.0224019,15.9998151 12.0112225,16 12,16 L11.967,15.998 L11.9409686,15.9982669 C11.9318954,15.9977336 11.922828,15.9970773 11.9137692,15.9962979 L12,16 C11.9493797,16 11.8996379,15.9962388 11.8510388,15.9889807 C11.834051,15.9863719 11.8166247,15.9832978 11.7992742,15.9797599 C11.7772539,15.9753602 11.7555635,15.9701664 11.7341604,15.964279 C11.7185367,15.9599023 11.7031487,15.9552713 11.6878575,15.9502619 C11.6682023,15.9438775 11.6484208,15.9366843 11.6289415,15.928896 C11.6112044,15.9218036 11.5939015,15.914321 11.5767785,15.9063266 C11.5561086,15.8966234 11.5357061,15.8862061 11.515723,15.8751242 C11.5036056,15.8685012 11.4913869,15.8613931 11.4792912,15.8540045 C11.453725,15.8382813 11.4288693,15.8215099 11.4048407,15.8036865 C11.397397,15.7982466 11.3901576,15.7927155 11.3829777,15.7870723 C11.3515341,15.7623312 11.3213595,15.7355731 11.2928932,15.7071068 L7.05025253,11.4644661 C6.65972824,11.0739418 6.65972824,10.4407768 7.05025253,10.0502525 C7.41073649,9.68976857 7.97796755,9.66203903 8.37025876,9.96706393 L8.46446609,10.0502525 L11,12.585 L11,3 C11,2.44771525 11.4477153,2 12,2 Z"/>
</svg>

<svg xmlns="http://www.w3.org/2000/svg" viewBox="0 0 24 24">
  <path d="M7.86 2h.11a1 1 0 0 1-.11 2H4.88A1 1 0 0 0 4 5v14.12A1 1 0 0 0 5 20h14.12a1 1 0 0 0 .88-1V4.88A1 1 0 0 0 19 4h-2.97a1 1 0 0 1 .11-2h3.04A3 3 0 0 1 22 5v14.18A3 3 0 0 1 19 22H4.82A3 3 0 0 1 2 19V4.82A3 3 0 0 1 5 2h2.86zM12 2a1 1 0 0 1 1 .88v9.72l2.54-2.54a1 1 0 0 1 1.5 1.32l-.09.1-4.24 4.24a1 1 0 0 1-.1.08l.1-.08a1 1 0 0 1-.53.27h-.03a1 1 0 0 1-.06.02h-.18.09a1 1 0 0 1-.7-.3l-4.25-4.24a1 1 0 0 1 1.32-1.5l.1.09L11 12.59V3a1 1 0 0 1 1-1z"/>
</svg>
